icons/square/48/falkon.svg

<?xml version="1.0" encoding="UTF-8" standalone="no"?>
<svg
   xmlns:dc="http://purl.org/dc/elements/1.1/"
   xmlns:cc="http://creativecommons.org/ns#"
   xmlns:rdf="http://www.w3.org/1999/02/22-rdf-syntax-ns#"
   xmlns:svg="http://www.w3.org/2000/svg"
   xmlns="http://www.w3.org/2000/svg"
   xmlns:sodipodi="http://sodipodi.sourceforge.net/DTD/sodipodi-0.dtd"
   xmlns:inkscape="http://www.inkscape.org/namespaces/inkscape"
   version="1.1"
   viewBox="0 0 48 48"
   id="svg27"
   sodipodi:docname="falkon.svg"
   inkscape:version="0.92.2 5c3e80d, 2017-08-06">
  <metadata
     id="metadata31">
    <rdf:RDF>
      <cc:Work
         rdf:about="">
        <dc:format>image/svg+xml</dc:format>
        <dc:type
           rdf:resource="http://purl.org/dc/dcmitype/StillImage" />
        <dc:title></dc:title>
      </cc:Work>
    </rdf:RDF>
  </metadata>
  <sodipodi:namedview
     pagecolor="#ffffff"
     bordercolor="#666666"
     borderopacity="1"
     objecttolerance="10"
     gridtolerance="10"
     guidetolerance="10"
     inkscape:pageopacity="0"
     inkscape:pageshadow="2"
     inkscape:window-width="3840"
     inkscape:window-height="2092"
     id="namedview29"
     showgrid="true"
     inkscape:zoom="111.25147"
     inkscape:cx="16.065395"
     inkscape:cy="14.651809"
     inkscape:window-x="0"
     inkscape:window-y="68"
     inkscape:window-maximized="1"
     inkscape:current-layer="svg27">
    <inkscape:grid
       type="xygrid"
       id="grid840" />
  </sodipodi:namedview>
  <defs
     id="defs7">
    <linearGradient
       id="bg"
       x2="0"
       y1="1"
       y2="47"
       gradientUnits="userSpaceOnUse">
      <stop
         style="stop-color:#b79afc"
         offset="0"
         id="stop2" />
      <stop
         style="stop-color:#a987fb"
         offset="1"
         id="stop4" />
    </linearGradient>
  </defs>
  <path
     d="m1 43v0.25c0 2.216 1.784 4 4 4h38c2.216 0 4-1.784 4-4v-0.25c0 2.216-1.784 4-4 4h-38c-2.216 0-4-1.784-4-4zm0 0.5v0.5c0 2.216 1.784 4 4 4h38c2.216 0 4-1.784 4-4v-0.5c0 2.216-1.784 4-4 4h-38c-2.216 0-4-1.784-4-4z"
     style="opacity:.02"
     id="path9" />
  <path
     d="m1 43.25v0.25c0 2.216 1.784 4 4 4h38c2.216 0 4-1.784 4-4v-0.25c0 2.216-1.784 4-4 4h-38c-2.216 0-4-1.784-4-4z"
     style="opacity:.05"
     id="path11" />
  <path
     d="m1 43v0.25c0 2.216 1.784 4 4 4h38c2.216 0 4-1.784 4-4v-0.25c0 2.216-1.784 4-4 4h-38c-2.216 0-4-1.784-4-4z"
     style="opacity:.1"
     id="path13" />
  <rect
     x="1"
     y="1"
     width="46"
     height="46"
     rx="4"
     style="fill:url(#bg)"
     id="rect15" />
  <path
     d="m1 39v4c0 2.216 1.784 4 4 4h38c2.216 0 4-1.784 4-4v-4c0 2.216-1.784 4-4 4h-38c-2.216 0-4-1.784-4-4z"
     style="opacity:.1"
     id="path17" />
  <path
     d="m21 10c-5 0-6.4068 1-7 2 3.8559 0 5 1 5 1h-1.5c-4.0612 0-7.5 6.3422-7.5 12.5 1-1.5 2.5-2.5 2.5-2.5-1.1063 1.5-2.5 4.5-2.5 9.5 0 1.4081 0.35811 2.5747 0.79102 3.5h25.209c-3.0256-2.2476-8-5.356-8-10 0-2 2-4 8-4h2c0-2-2-5-6-6-1.356-2-5-6-11-6z"
     style="opacity:.1;paint-order:normal"
     id="path19" />
  <path
     style="fill:#f9f9f9;paint-order:normal"
     d="M 21 9 C 16 9 14.5932 10 14 11 L 19 11 L 19 12 L 17.5 12 C 14.160947 12 11.246726 16.289234 10.314453 21.236328 L 12.5 22 C 11.3937 23.5 10 26.5 10 31.5 C 10 31.966342 10.048921 32.397175 10.117188 32.810547 L 12.251953 35 L 36 35 C 32.9744 32.7524 28 29.644 28 25 C 28 23 30 21 36 21 L 38 21 C 38 19 36 16 32 15 C 30.644 13 27 9 21 9 z "
     id="path21" />
  <path
     d="m26 14c2 0 3 0 3 2-2 0-3 0-3-2z"
     style="fill:#2a2a2a;paint-order:normal"
     id="path23" />
  <path
     d="m17.922 10.396c-1.9023 0.0176-3.2593 0.12471-3.9219 0.60352 3.8559 0 5 1 5 1 0.42646-0.30285 1-0.84621 1-1.6016-0.75-4e-3 -1.444-8e-3 -2.0781-2e-3zm8.0781 6.6035c-7.0205 0-13.085 1.6951-15.686 4.2363-0.20162 1.0699-0.31445 2.1687-0.31445 3.2637 1-1.5 2.5-2.5 2.5-2.5 3.9522-2.7064 9.0005-4.5962 13.5-5zm6 3c-8.9335 0-16.711 4.1356-21.883 12.811 0.1399 0.84782 0.39464 1.5734 0.68164 2.1895h1.4531c2.874-6.4016 11.626-15 19.748-15z"
     style="fill:#f9ca5b;paint-order:normal"
     id="path25" />
</svg>

<svg version="1.1" viewBox="0 0 48 48" xmlns="http://www.w3.org/2000/svg">
 <defs>
  <linearGradient id="bg" x2="0" y1="1" y2="47" gradientUnits="userSpaceOnUse">
   <stop style="stop-color:#b79afc" offset="0"/>
   <stop style="stop-color:#a987fb" offset="1"/>
  </linearGradient>
 </defs>
 <path d="m1 43v0.25c0 2.216 1.784 4 4 4h38c2.216 0 4-1.784 4-4v-0.25c0 2.216-1.784 4-4 4h-38c-2.216 0-4-1.784-4-4zm0 0.5v0.5c0 2.216 1.784 4 4 4h38c2.216 0 4-1.784 4-4v-0.5c0 2.216-1.784 4-4 4h-38c-2.216 0-4-1.784-4-4z" style="opacity:.02"/>
 <path d="m1 43.25v0.25c0 2.216 1.784 4 4 4h38c2.216 0 4-1.784 4-4v-0.25c0 2.216-1.784 4-4 4h-38c-2.216 0-4-1.784-4-4z" style="opacity:.05"/>
 <path d="m1 43v0.25c0 2.216 1.784 4 4 4h38c2.216 0 4-1.784 4-4v-0.25c0 2.216-1.784 4-4 4h-38c-2.216 0-4-1.784-4-4z" style="opacity:.1"/>
 <rect x="1" y="1" width="46" height="46" rx="4" style="fill:url(#bg)"/>
 <path d="m1 39v4c0 2.216 1.784 4 4 4h38c2.216 0 4-1.784 4-4v-4c0 2.216-1.784 4-4 4h-38c-2.216 0-4-1.784-4-4z" style="opacity:.1"/>
 <path d="m21 10c-5 0-6.4068 1-7 2 3.8559 0 5 1 5 1h-1.5c-4.0612 0-7.5 6.3422-7.5 12.5 1-1.5 2.5-2.5 2.5-2.5-1.1063 1.5-2.5 4.5-2.5 9.5 0 1.4081 0.35811 2.5747 0.79102 3.5h25.209c-3.0256-2.2476-8-5.356-8-10 0-2 2-4 8-4h2c0-2-2-5-6-6-1.356-2-5-6-11-6z" style="opacity:.1;paint-order:normal"/>
 <path d="m21 9c-5 0-6.4068 1-7 2 3.8559 0 5 1 5 1h-1.5c-4.0612 0-7.5 6.3422-7.5 12.5 1-1.5 2.5-2.5 2.5-2.5-1.1063 1.5-2.5 4.5-2.5 9.5 0 1.4081 0.35811 2.5747 0.79102 3.5h25.209c-3.0256-2.2476-8-5.356-8-10 0-2 2-4 8-4h2c0-2-2-5-6-6-1.356-2-5-6-11-6z" style="fill:#f9f9f9;paint-order:normal"/>
 <path d="m26 14c2 0 3 0 3 2-2 0-3 0-3-2z" style="fill:#2a2a2a;paint-order:normal"/>
 <path d="m17.922 10.396c-1.9023 0.0176-3.2593 0.12471-3.9219 0.60352 3.8559 0 5 1 5 1 0.42646-0.30285 1-0.84621 1-1.6016-0.75-4e-3 -1.444-8e-3 -2.0781-2e-3zm8.0781 6.6035c-7.0205 0-13.085 1.6951-15.686 4.2363-0.20162 1.0699-0.31445 2.1687-0.31445 3.2637 1-1.5 2.5-2.5 2.5-2.5 3.9522-2.7064 9.0005-4.5962 13.5-5zm6 3c-8.9335 0-16.711 4.1356-21.883 12.811 0.1399 0.84782 0.39464 1.5734 0.68164 2.1895h1.4531c2.874-6.4016 11.626-15 19.748-15z" style="fill:#f9ca5b;paint-order:normal"/>
</svg>
